flaticon/office/tie.svg

<svg xmlns="http://www.w3.org/2000/svg" width="32" height="32" viewBox="0 0 24 24">
    <path d="M 17.601562 1.910156 L 17.203125 0.308594 C 17.164062 0.191406 17.082031 0.0703125 16.960938 0.03125 C 16.84375 -0.0117188 16.722656 -0.0117188 16.601562 0.03125 L 12 2.714844 L 7.398438 0.03125 C 7.277344 -0.0117188 7.15625 -0.0117188 7.039062 0.03125 C 6.917969 0.0703125 6.835938 0.191406 6.796875 0.308594 L 6.398438 1.910156 C 6.398438 1.992188 6.398438 2.109375 6.476562 2.230469 L 9.585938 6.894531 L 8.398438 19.957031 C 8.398438 20.078125 8.4375 20.199219 8.519531 20.277344 L 11.71875 23.878906 C 11.761719 23.960938 11.878906 24 12 24 C 12.121094 24 12.199219 23.960938 12.28125 23.878906 L 15.882812 20.277344 C 15.960938 20.199219 16 20.078125 16 19.957031 L 14.417969 6.886719 L 17.523438 2.230469 C 17.601562 2.109375 17.601562 1.992188 17.601562 1.910156 Z M 12 4.039062 L 13.308594 6.394531 L 10.691406 6.394531 Z M 7.4375 1.03125 L 11.441406 3.351562 L 9.953125 6.023438 L 7.238281 1.910156 Z M 12 23.039062 L 9.199219 19.878906 L 10.359375 7.191406 L 13.640625 7.191406 L 15.160156 19.878906 Z M 14.003906 6.023438 L 12.519531 3.351562 L 16.480469 0.992188 L 16.722656 1.910156 Z M 14.003906 6.023438"/>
</svg>

<svg xmlns="http://www.w3.org/2000/svg" width="32" height="32" viewBox="0 0 24 24">
    <path d="M17.602 1.91L17.203.31C17.164.19 17.082.07 16.961.03a.517.517 0 0 0-.36 0L12 2.715 7.398.03a.517.517 0 0 0-.359 0c-.121.04-.203.16-.242.278L6.398 1.91c0 .082 0 .2.079.32l3.109 4.665-1.188 13.062c0 .121.04.242.122.32l3.199 3.602c.043.082.16.121.281.121.121 0 .2-.04.281-.121l3.602-3.602a.456.456 0 0 0 .117-.32l-1.582-13.07 3.105-4.657c.079-.12.079-.238.079-.32zM12 4.04l1.309 2.355H10.69zM7.437 1.03l4.004 2.32-1.488 2.672L7.238 1.91zM12 23.04l-2.8-3.16L10.36 7.19h3.28l1.52 12.688zm2.004-17.016L12.52 3.352l3.96-2.36.243.918zm0 0"/>
</svg>
